_site/img/test.svg

<svg preserveAspectRatio="xMinYMin meet" viewBox="0 0 369 525" xmlns="http://www.w3.org/2000/svg"><g fill="#fff" transform="translate(-517 -123)"><path d="m517 123h43.5v300.5h144v36.5h-187.5z"/><path d="m739 348h-102.5v-37h249.5v37h-103v300h-44z"/></g></svg>

<svg id="Layer_1" preserveAspectRatio="xMinYMin meet" data-name="Layer 1" xmlns="http://www.w3.org/2000/svg" viewBox="0 0 369 525"><defs><style>.cls-1{fill:#FFFFFF;}.cls-2{fill:#FFFFFF;}</style></defs><title>Untitled-1</title><path class="cls-1" d="M517,123h43.5V423.5h144V460H517Z" transform="translate(-517 -123)"/><path class="cls-2" d="M739,348H636.5V311H886v37H783V648H739Z" transform="translate(-517 -123)"/></svg>
